www/assets/icons/face_retouching_off.svg

<svg width="24" height="24" viewBox="0 0 24 24" xmlns="http://www.w3.org/2000/svg" fill='currentColor'><path d="M9.05501 14.1951C9.74536 14.1951 10.305 13.6354 10.305 12.9451C10.305 12.2547 9.74536 11.6951 9.05501 11.6951C8.36465 11.6951 7.80501 12.2547 7.80501 12.9451C7.80501 13.6354 8.36465 14.1951 9.05501 14.1951Z"/><path d="M17.555 9.94507C18.305 9.94507 19.025 9.85507 19.725 9.70507C19.935 10.4151 20.055 11.1651 20.055 11.9451C20.055 13.1651 19.775 14.3151 19.285 15.3451L20.775 16.8351C21.585 15.3851 22.055 13.7251 22.055 11.9451C22.055 6.42507 17.575 1.94507 12.055 1.94507C10.275 1.94507 8.61501 2.41507 7.16501 3.22507L12.495 8.55507C13.985 9.43507 15.705 9.94507 17.555 9.94507Z"/><path d="M1.94501 3.66507L4.13501 5.85507C2.83501 7.54507 2.05501 9.65507 2.05501 11.9451C2.05501 17.4651 6.53501 21.9451 12.055 21.9451C14.345 21.9451 16.455 21.1651 18.145 19.8651L20.335 22.0551L21.745 20.6451L3.36501 2.25507L1.94501 3.66507ZM16.715 18.4351C15.405 19.3851 13.795 19.9451 12.055 19.9451C7.64501 19.9451 4.05501 16.3551 4.05501 11.9451C4.05501 11.8951 4.06501 11.8451 4.05501 11.8051C5.44501 11.2851 6.68501 10.4551 7.69501 9.41507L16.715 18.4351Z"/></svg>

<svg xmlns="http://www.w3.org/2000/svg" width="24" height="24" viewBox="0 0 24 24" fill='currentColor'><path d="M9.055 14.195a1.25 1.25 0 1 0 0-2.5 1.25 1.25 0 0 0 0 2.5m8.5-4.25c.75 0 1.47-.09 2.17-.24.21.71.33 1.46.33 2.24 0 1.22-.28 2.37-.77 3.4l1.49 1.49a10 10 0 0 0 1.28-4.89c0-5.52-4.48-10-10-10-1.78 0-3.44.47-4.89 1.28l5.33 5.33c1.49.88 3.21 1.39 5.06 1.39"/><path d="m1.945 3.665 2.19 2.19a9.96 9.96 0 0 0-2.08 6.09c0 5.52 4.48 10 10 10 2.29 0 4.4-.78 6.09-2.08l2.19 2.19 1.41-1.41-18.38-18.39zm14.77 14.77a7.9 7.9 0 0 1-4.66 1.51c-4.41 0-8-3.59-8-8 0-.05.01-.1 0-.14a9.95 9.95 0 0 0 3.64-2.39z"/></svg>
